X:727
M:C|
L:1/8
K:F
c|fc ~c2 fcaf|gcbg fedc|ac ~c2 dBgf|efge f3c|fc ~c2 Afca|
dbag fedc|f/g/a fc d/e/f dB|A/B/c BG ~F3||

